src/app/client/src/assets/images/delete-icon.svg

<?xml version="1.0" encoding="UTF-8"?>
<svg width="16px" height="20px" viewBox="0 0 16 20" version="1.1" xmlns="http://www.w3.org/2000/svg" xmlns:xlink="http://www.w3.org/1999/xlink">
    <!-- Generator: sketchtool 53 (72520) - https://sketchapp.com -->
    <title>34B2BE8F-0A20-44EC-B2D8-58901174D8D8</title>
    <desc>Created with sketchtool.</desc>
    <g id="Page-1" stroke="none" stroke-width="1" fill="none" fill-rule="evenodd">
        <g id="search" transform="translate(-1257.000000, -417.000000)" fill="#0E65A7">
            <g id="rubbish-bin" transform="translate(1257.000000, 417.000000)">
                <path d="M14.4276832,2.35497574 L11.7605263,2.35497574 L11.7605263,0.619708705 C11.7605263,0.27042351 11.479128,0 11.130289,0 C11.0964396,0 11.0738648,0.0113139266 11.0628483,0.0226020223 C11.051548,0.0113139266 11.0289732,0 11.0176987,0 L4.74920021,0 L4.70430857,0 L4.65915893,0 C4.31031992,0 4.04022188,0.27042351 4.04022188,0.619708705 L4.04022188,2.35500157 L1.36179051,2.35500157 C0.596388029,2.35500157 0,2.95210825 0,3.71843305 L0,4.71000314 L0,5.94939472 L1.18170795,5.94939472 L1.18170795,18.6478566 C1.18170795,19.4142072 1.76682147,20 2.53222394,20 L13.2572755,20 C14.022678,20 14.6190402,19.4142072 14.6190402,18.6478566 L14.6190402,5.94939472 L15.7894737,5.94939472 L15.7894737,4.71000314 L15.7894737,3.71843305 C15.7894737,2.95210825 15.1928535,2.35497574 14.4276832,2.35497574 Z M5.27812178,1.23939158 L10.5113519,1.23939158 L10.5113519,2.35497574 L5.27812178,2.35497574 L5.27812178,1.23939158 L5.27812178,1.23939158 Z M13.3698658,18.6478824 C13.3698658,18.7269508 13.3360165,18.7605826 13.2572755,18.7605826 L2.53222394,18.7605826 C2.45348297,18.7605826 2.41963364,18.7269249 2.41963364,18.6478824 L2.41963364,5.94936889 L13.3698658,5.94936889 L13.3698658,18.6478824 L13.3698658,18.6478824 Z M14.5402993,4.70997731 L1.24917441,4.70997731 L1.24917441,3.71840722 C1.24917441,3.63954553 1.28302374,3.59436732 1.36176471,3.59436732 L14.4276832,3.59436732 C14.5064499,3.59436732 14.5402993,3.63954553 14.5402993,3.71840722 L14.5402993,4.70997731 Z" id="Shape" fill-rule="nonzero"></path>
                <rect id="Rectangle" x="10.5263158" y="7.36842105" width="1.05263158" height="10.5263158"></rect>
                <rect id="Rectangle" x="7.36842105" y="7.36842105" width="1.05263158" height="10.5263158"></rect>
                <rect id="Rectangle" x="4.21052632" y="7.36842105" width="1.05263158" height="10.5263158"></rect>
            </g>
        </g>
    </g>
</svg>

<svg xmlns="http://www.w3.org/2000/svg" width="16" height="20" fill="#0e65a7" fill-rule="evenodd" xmlns:v="https://vecta.io/nano"><path d="M14.428 2.355H11.76V.62a.62.62 0 0 0-.63-.62c-.034 0-.056.01-.067.023C11.052.01 11.03 0 11.018 0H4.66a.61.61 0 0 0-.619.62v1.735H1.362C.596 2.355 0 2.952 0 3.718v2.23h1.182v12.698c0 .766.585 1.352 1.35 1.352h10.725c.765 0 1.362-.586 1.362-1.352V5.95h1.17v-2.23c0-.766-.597-1.363-1.362-1.363zM5.278 1.24h5.233v1.116H5.278V1.24zm8.092 17.408c0 .08-.034.113-.113.113H2.532c-.08 0-.113-.034-.113-.113V5.95h10.95v12.7zM14.54 4.7H1.25v-.992c0-.08.034-.124.113-.124h13.066c.08 0 .113.045.113.124V4.7z" fill-rule="nonzero"/><path d="M10.526 7.368h1.053v10.526h-1.053zm-3.158 0H8.42v10.526H7.368zm-3.158 0h1.053v10.526H4.2z"/></svg>
